ui/StatusQ/src/assets/img/icons/communities/menu/roles.svg

<svg fill="none" height="16" viewBox="0 0 16 16" width="16" xmlns="http://www.w3.org/2000/svg"><g clip-rule="evenodd" fill="#fff" fill-rule="evenodd"><path d="m6.23747 11.2262c0 .7951-.64769 1.4397-1.44667 1.4397-.79897 0-1.44666-.6446-1.44666-1.4397s.64769-1.4396 1.44666-1.4396c.79898 0 1.44667.6445 1.44667 1.4396zm-1.00538 0c0 .2426-.19757.4392-.44129.4392-.24371 0-.44128-.1966-.44128-.4392 0-.2425.19757-.4391.44128-.4391.24372 0 .44129.1966.44129.4391z"/><path d="m11.4319 7.38763c-.0315.12788-.1357.22533-.2659.24871l-.6458.11594c-.1461.02622-.2574.14492-.2736.29173l-.1041.94129c-.0087.07853-.0451.15144-.1027.20574l-.60512.56995c-.08349.07864-.11962.19424-.10263.30741.02923.1946.04437.3938.04437.5965 0 2.2102-1.8005 4.0019-4.02152 4.0019-2.22103 0-4.02153-1.7917-4.02153-4.0019 0-2.21024 1.8005-4.00198 4.02153-4.00198.46398 0 .90962.0782 1.32432.22206.1268.044.2691.01748.36486-.07621l5.49882-5.3796c.0627-.06131.147-.09567.2349-.09567h1.5537c.2128 0 .3717.19486.3279.40212l-.549 2.59829c-.024.11367-.1058.20672-.2158.24562l-.5929.20971c-.0991.03504-.1759.11433-.2075.21415l-.267.84454c-.0337.10665-.1189.18939-.2268.22036l-.7209.20686c-.1153.03308-.204.12499-.2326.24096zm-3.06086 3.27727c0-.2315-.02634-.4569-.07619-.67337l-.00624-.01838c-.03799-.11207-.08084-.22206-.12832-.32969-.00834-.01889-.00407-.04098.01088-.05528l.96854-.92695c.01958-.01845.03195-.04321.0349-.06989l.15467-1.39929c.01623-.14681.12756-.26551.27362-.29173l.7422-.13325c.1302-.02338.2344-.12083.266-.24871l.198-.80313c.0286-.11597.1174-.20787.2327-.24096l.7615-.21851c.108-.03098.1931-.11372.2268-.22036l.2554-.80779c.0316-.09982.1084-.17912.2075-.21416l.5338-.18879c.11-.0389.1917-.13194.2157-.24561l.1931-.91354c.0361-.17088-.095-.33153-.2704-.33153-.0725 0-.142.02833-.1937.07889l-5.17991 5.06806-.72573.70814c-.00128.00125-.00327.00142-.00475.00041-.48524-.33185-1.07293-.52607-1.70621-.52607-1.66577 0-3.01614 1.3438-3.01614 3.00149 0 1.6576 1.35037 3.0014 3.01614 3.0014s3.01614-1.3438 3.01614-3.0014z"/></g></svg>

<svg width="16" height="16" viewBox="0 0 16 16" fill="none" xmlns="http://www.w3.org/2000/svg">
<path fill-rule="evenodd" clip-rule="evenodd" d="M6.23747 11.2262C6.23747 12.0213 5.58978 12.6659 4.7908 12.6659C3.99183 12.6659 3.34414 12.0213 3.34414 11.2262C3.34414 10.4311 3.99183 9.7866 4.7908 9.7866C5.58978 9.7866 6.23747 10.4311 6.23747 11.2262ZM5.23209 11.2262C5.23209 11.4688 5.03452 11.6654 4.7908 11.6654C4.54709 11.6654 4.34952 11.4688 4.34952 11.2262C4.34952 10.9837 4.54709 10.7871 4.7908 10.7871C5.03452 10.7871 5.23209 10.9837 5.23209 11.2262Z" fill="white"/>
<path fill-rule="evenodd" clip-rule="evenodd" d="M11.4319 7.38763C11.4004 7.51551 11.2962 7.61296 11.166 7.63634L10.5202 7.75228C10.3741 7.7785 10.2628 7.8972 10.2466 8.04401L10.1425 8.9853C10.1338 9.06383 10.0974 9.13674 10.0398 9.19104L9.43468 9.76099C9.35119 9.83963 9.31506 9.95523 9.33205 10.0684C9.36128 10.263 9.37642 10.4622 9.37642 10.6649C9.37642 12.8751 7.57592 14.6668 5.3549 14.6668C3.13387 14.6668 1.33337 12.8751 1.33337 10.6649C1.33337 8.45466 3.13387 6.66292 5.3549 6.66292C5.81888 6.66292 6.26452 6.74112 6.67922 6.88498C6.80602 6.92898 6.94832 6.90246 7.04408 6.80877L12.5429 1.42917C12.6056 1.36786 12.6899 1.3335 12.7778 1.3335H14.3315C14.5443 1.3335 14.7032 1.52836 14.6594 1.73562L14.1104 4.33391C14.0864 4.44758 14.0046 4.54063 13.8946 4.57953L13.3017 4.78924C13.2026 4.82428 13.1258 4.90357 13.0942 5.00339L12.8272 5.84793C12.7935 5.95458 12.7083 6.03732 12.6004 6.06829L11.8795 6.27515C11.7642 6.30823 11.6755 6.40014 11.6469 6.51611L11.4319 7.38763ZM8.37104 10.6649C8.37104 10.4334 8.3447 10.208 8.29485 9.99153L8.28861 9.97315C8.25062 9.86108 8.20777 9.75109 8.16029 9.64346C8.15195 9.62457 8.15622 9.60248 8.17117 9.58818L9.13971 8.66123C9.15929 8.64278 9.17166 8.61802 9.17461 8.59134L9.32928 7.19205C9.34551 7.04524 9.45684 6.92654 9.6029 6.90032L10.3451 6.76707C10.4753 6.74369 10.5795 6.64624 10.6111 6.51836L10.8091 5.71523C10.8377 5.59926 10.9265 5.50736 11.0418 5.47427L11.8033 5.25576C11.9113 5.22478 11.9964 5.14204 12.0301 5.0354L12.2855 4.22761C12.3171 4.12779 12.3939 4.04849 12.493 4.01345L13.0268 3.82466C13.1368 3.78576 13.2185 3.69272 13.2425 3.57905L13.4356 2.66551C13.4717 2.49463 13.3406 2.33398 13.1652 2.33398C13.0927 2.33398 13.0232 2.36231 12.9715 2.41287L7.79159 7.48093L7.06586 8.18907C7.06458 8.19032 7.06259 8.19049 7.06111 8.18948C6.57587 7.85763 5.98818 7.66341 5.3549 7.66341C3.68913 7.66341 2.33876 9.00721 2.33876 10.6649C2.33876 12.3225 3.68913 13.6663 5.3549 13.6663C7.02067 13.6663 8.37104 12.3225 8.37104 10.6649Z" fill="white"/>
</svg>
